!! 00000] TT[WS
!!!OTL: Renzou qianli zhe huilai
!!!ARE: Asia, China,ÿShanxi Hequ
!! Ethnic Group: Han
!! WI, 31
!!!SCT: J0033
!!!YEM: Copyright 1995, estate of Helmut Schaffrath.
**kern
*ICvox
*Ivox
*M2/4
*k[b-e-]
*B-:
{8r
8f
8f
8bb-
=1
4.ff
8dd
=2
8bb-
8dd
12cc
12b-
12cc
=3
8dd
16dd
16ff
8b-
16g
16f
=4
2cc}
=5
{8r
8f
8f
8bb-
=6
4.ff
8dd
=7
8bb-
8dd
12cc
12b-
12cc
=8
8dd
16dd
16ff
16cc
16b-
16g
16b-
=9
2f}
==
!!!AGN: Shange, Shanqu. Qingge
!!!ONB: ESAC (Essen Associative Code) Database: CHINA
!!!AMT: simple duple
!!!AIN: vox
!!!EED: Helmut Schaffrath
!!!EEV: 1.0
*-
